assets/Spoon/Flat/spoon_flat.svg

<svg width="32" height="32" viewBox="0 0 32 32" fill="none" xmlns="http://www.w3.org/2000/svg">
<path d="M13.364 15.8455L26.2429 29.461C26.8966 30.152 27.997 30.2318 28.725 29.5903C29.4782 28.925 29.5344 27.7748 28.8513 27.0527L15.943 13.4061C15.2717 12.6963 14.9808 11.7211 15.1167 10.7433C15.3995 8.63564 14.5494 6.13683 12.665 4.14462C9.78537 1.10028 5.57891 0.408001 3.2704 2.59162C0.961894 4.77523 1.41939 9.01366 4.29903 12.058C6.18346 14.0502 8.63119 15.0377 10.7454 14.8663C11.7292 14.785 12.6927 15.1358 13.364 15.8455Z" fill="#9B9B9B"/>
<path d="M4.56583 3.96109C2.82884 5.60411 3.17401 8.78961 5.3368 11.0761C7.49959 13.3626 10.661 13.8842 12.398 12.2412C14.135 10.5982 13.7898 7.41268 11.627 5.12619C9.46422 2.8397 6.30282 2.31807 4.56583 3.96109Z" fill="#636363"/>
</svg>

<svg xmlns="http://www.w3.org/2000/svg" width="32" height="32" fill="none"><path fill="#9B9B9B" d="m13.364 15.845 12.879 13.616c.654.691 1.754.77 2.482.13.753-.666.81-1.816.126-2.538L15.943 13.406c-.671-.71-.962-1.685-.826-2.663.282-2.107-.568-4.606-2.452-6.598C9.785 1.1 5.579.408 3.27 2.592.962 4.775 1.42 9.014 4.3 12.058c1.884 1.992 4.332 2.98 6.446 2.808a3.223 3.223 0 0 1 2.619.98Z"/><path fill="#636363" d="M4.566 3.961c-1.737 1.643-1.392 4.829.77 7.115 2.164 2.287 5.325 2.808 7.062 1.165 1.737-1.643 1.392-4.828-.771-7.115C9.464 2.84 6.303 2.318 4.566 3.961Z"/></svg>
